X:15
T:Vaudeville
M:2
L:1/4
K:Cm
%%staves [1 3]
V:1
cg | g3f | edc!!=B | c2!!d2 | edcg | g3f | edc!!=B | c2!!d2 | ue2 ::
de | uf3e | dgce | !!d3c | !!=BGcg | g3f | !!edef | g2!!d2 | c2 :|
V:2
C2 | =B,A,=B,G, | CG,/F,/ E,D, | C,2=B,,2 | C,G,C2 | =B,A,=B,G, | CG,/F,/ E,D, | (E,C,)G,G,, | C,2 ::
G,F,/E,/ | D,C,=B,,C, | G,F,E,C, | F,G,_A,F, | G,/F,/E,/D,/ C,C | =B,A,=B,G, | CG,C,D, | E,/D,/E,/F,/ G,G,, | C,2 :|
V:3
c'2 | =ba=bg | c'g/2f/2 ed | c2=B2 | cgc'2 | =ba=bg | c'g/2f/2 ed | (ec)gG | c2 ::
gf/2e/2 | dc=Bc | gfec | fg_af | g/2f/2e/2d/2 cc' | =ba=bg | c'gcd | e/2d/2e/2f/2 gG | c2 :|
